X: 16430
T: Hafotty Dafydd Owain
R: jig
M: 6/8
K: Adorian
E|:A3 cBA|B2e edc|BEE GEB|cBA BGE|
A3 c3A|B2e efg|aee dcB|1 A^GB A2E:|2 A^GB A2B:|
|:c2A dB/c/d|e3 edc|BEE c2A|EAc B3|
cEE c2d|e^de efg|aee dcB|1 A^GB A2B:|2 A^GB A2:|

